X:41
T:Chatham Hornpipe
R: hp 32
M:C
L:1/8
Q:2/4=80
C:B part Paul Davenport, arr. Taz Tarry
K:D
|:A2|d2cB AGFE|D2EF G2AG|F2dB A2ef|gfed dcBA|
d2cB AGFE|D2EF G2AG|F2dB Agec|d2dd d2:|]
|:AA|A2fA A2fA|B2gB B2gB|A2fA A2ff|gfed dcBA|
A2fA A2fA|B2gB B2cB|A2dc Bgec|d2dd d2:|]

